icons/error.svg

<svg width="20" height="20" fill="none" xmlns="http://www.w3.org/2000/svg"><path fill-rule="evenodd" clip-rule="evenodd" d="M9.99 0C4.47 0 0 4.48 0 10s4.47 10 9.99 10C15.52 20 20 15.52 20 10S15.52 0 9.99 0zM11 11V5H9v6h2zm0 4v-2H9v2h2zm-9-5c0 4.42 3.58 8 8 8s8-3.58 8-8-3.58-8-8-8-8 3.58-8 8z" fill="#C99D18"/></svg>

<svg width="20" height="20" viewBox="0 0 20 20" fill="none" xmlns="http://www.w3.org/2000/svg">
<path fill-rule="evenodd" clip-rule="evenodd" d="M9.99 0C4.47 0 0 4.48 0 10C0 15.52 4.47 20 9.99 20C15.52 20 20 15.52 20 10C20 4.48 15.52 0 9.99 0ZM11 11V5H9V11H11ZM11 15V13H9V15H11ZM2 10C2 14.42 5.58 18 10 18C14.42 18 18 14.42 18 10C18 5.58 14.42 2 10 2C5.58 2 2 5.58 2 10Z" fill="#C99D18"/>
</svg>
